X: 27501
T: Moloney's Favourite
R: jig
M: 6/8
K: Dmajor
|:DA,D FDF|Adf g2e|fed ~B3|dAF E2F|
DED FDF|Adf g2e|fdB AFA|1 Bdc dAF:|2 Bdc d2g||
|:~f3 agf|~e3 gfe|f2a gbg|fed B2A|
faa agf|~e3 gfe|~f3 ede|1 fdc d2g:|2 fdc dAF||

